material/.icons/material/map-check-outline.svg

<svg xmlns="http://www.w3.org/2000/svg" viewBox="0 0 24 24"><path d="M18.25 22l-2.75-3 1.16-1.18 1.59 1.59 3.59-3.59L23 17.23 18.25 22M20.5 3a.5.5 0 01.5.5v9.84c-.63-.22-1.3-.34-2-.34V5.7l-3 1.16v6.94c-.8.47-1.5 1.11-2 1.88V6.87l-4-1.4v11.66l3.05 1.07-.05.8c0 .46.05.92.15 1.35L9 18.9l-5.34 2.07-.16.03a.5.5 0 01-.5-.5V5.38c0-.23.15-.41.36-.48L9 3l6 2.1 5.34-2.07.16-.03M5 6.46v11.85l3-1.16V5.45L5 6.46z"/></svg>

<?xml version="1.0" encoding="UTF-8"?><!DOCTYPE svg PUBLIC "-//W3C//DTD SVG 1.1//EN" "http://www.w3.org/Graphics/SVG/1.1/DTD/svg11.dtd"><svg xmlns="http://www.w3.org/2000/svg" xmlns:xlink="http://www.w3.org/1999/xlink" version="1.1" id="mdi-map-check-outline" width="24" height="24" viewBox="0 0 24 24"><path d="M18.25,22L15.5,19L16.66,17.82L18.25,19.41L21.84,15.82L23,17.23L18.25,22M20.5,3A0.5,0.5 0 0,1 21,3.5V13.34C20.37,13.12 19.7,13 19,13V5.7L16,6.86V13.8C15.2,14.27 14.5,14.91 14,15.68V6.87L10,5.47V17.13L13.05,18.2L13,19C13,19.46 13.05,19.92 13.15,20.35L9,18.9L3.66,20.97L3.5,21A0.5,0.5 0 0,1 3,20.5V5.38C3,5.15 3.15,4.97 3.36,4.9L9,3L15,5.1L20.34,3.03L20.5,3M5,6.46V18.31L8,17.15V5.45L5,6.46Z" /></svg>
